ADAMAKER/website/wwwroot/library/media/icon-youtube.svg

<svg width="24" height="25" viewBox="0 0 24 25" fill="none" xmlns="http://www.w3.org/2000/svg">
<g clip-path="url(#clip0_115_518)">
<path d="M23.5006 7.0061C23.3647 6.52133 23.1 6.08245 22.7346 5.7361C22.3589 5.3791 21.8984 5.12374 21.3966 4.9941C19.5186 4.4991 11.9946 4.4991 11.9946 4.4991C8.85795 4.46341 5.72205 4.62037 2.60462 4.9691C2.10281 5.10831 1.64318 5.36939 1.26662 5.7291C0.896617 6.0851 0.628617 6.5241 0.488617 7.0051C0.15231 8.81684 -0.0110908 10.6564 0.000617183 12.4991C-0.0113828 14.3401 0.151617 16.1791 0.488617 17.9931C0.625617 18.4721 0.892617 18.9091 1.26362 19.2621C1.63462 19.6151 2.09662 19.8701 2.60462 20.0051C4.50762 20.4991 11.9946 20.4991 11.9946 20.4991C15.1353 20.5348 18.2752 20.3779 21.3966 20.0291C21.8984 19.8995 22.3589 19.6441 22.7346 19.2871C23.1046 18.9341 23.3676 18.4951 23.4996 18.0171C23.8447 16.2061 24.0125 14.3657 24.0006 12.5221C24.0266 10.6707 23.859 8.82166 23.5006 7.0051V7.0061ZM9.60262 15.9231V9.0761L15.8626 12.5001L9.60262 15.9231Z" fill="#F24139"/>
</g>
<defs>
<clipPath id="clip0_115_518">
<rect width="24" height="24" fill="white" transform="translate(0 0.5)"/>
</clipPath>
</defs>
</svg>

<?xml version="1.0" encoding="UTF-8"?>
<svg id="Camada_1" xmlns="http://www.w3.org/2000/svg" version="1.1" xmlns:xlink="http://www.w3.org/1999/xlink" viewBox="0 0 24 25">
  <!-- Generator: Adobe Illustrator 29.1.0, SVG Export Plug-In . SVG Version: 2.1.0 Build 142)  -->
  <defs>
    <style>
      .st0 {
        fill: #141414;
      }

      .st1 {
        fill: none;
      }

      .st2 {
        clip-path: url(#clippath);
      }
    </style>
    <clipPath id="clippath">
      <rect class="st1" y=".5" width="24" height="24"/>
    </clipPath>
  </defs>
  <g class="st2">
    <path class="st0" d="M23.5,7c-.1-.5-.4-.9-.8-1.3-.4-.4-.8-.6-1.3-.7-1.9-.5-9.4-.5-9.4-.5-3.1,0-6.3.1-9.4.5-.5.1-1,.4-1.3.8-.4.4-.6.8-.8,1.3C.2,8.8,0,10.7,0,12.5c0,1.8.2,3.7.5,5.5.1.5.4.9.8,1.3.4.4.8.6,1.3.7,1.9.5,9.4.5,9.4.5,3.1,0,6.3-.1,9.4-.5.5-.1,1-.4,1.3-.7.4-.4.6-.8.8-1.3.3-1.8.5-3.7.5-5.5,0-1.9-.1-3.7-.5-5.5h0ZM9.6,15.9v-6.8l6.3,3.4-6.3,3.4Z"/>
  </g>
</svg>
